X:6
T:
T:Variation IV.
M:3/4
L:1/16
%%MIDI transpose -24
K:C
%1
z4 | CEGceg ecGEGE CEGceg | CEGceg ecGEGE CEGceg |
w:l
%2
fgfefe dfdcdc BcBAGF | ECEGce gecGEC G,GGGGG |
w:2
%3
CEGceg ecGEGE CEGceg | CEGceg ecGEGE CEGceg |
w:3
%4
fgfefe dedcdc BAGFED | CEGceg C4 || z4 | ^FFF AAA ccc ddd ^fff aaa|
w:4
%5
g2 ddd BGG GGG BBB ddd | cddddd Addddd ^Fddddd |
w:5
%6
Gddddd BGGGGG BBB GGG | ^FFF AAA ccc ddd ^fff aaa |
w:6
%7
g2 ddd BGG GGG BBB ddd | cddddd Addddd ^Fddddd |
w:7
%8
GBBBBBG4 z4 | CEGceg ecGEGE CEGceg | CEGceg ecGEGE CEGceg |
w:8
%9
fgfefe dedcdc BcBAGF | ECEGce gecGEC G,GGGGG | CEGceg ecGEGE CEGceg |
w:9
%10
CEGceg ecGEGE CEGceg | fgfefe dedcdc BAGFED | CEGceg C4 z4 |]
w:10

